src/24x24/places/folder-gruvbox-material-aqua-wine.svg

<?xml version="1.0" encoding="UTF-8"?>
<svg width="24" height="24" version="1" xmlns="http://www.w3.org/2000/svg">
 <rect x="2" y="9.5" width="20" height="12" rx="1" ry="1" opacity=".2"/>
 <path d="m2 17c0 0.554 0.446 1 1 1h18c0.554 0 1-0.446 1-1v-11c0-0.554-0.446-1-1-1h-9c-1.5 0-2-2-3.5-2h-5.5c-0.554 0-1 0.446-1 1" fill="#4c7a5d"/>
 <rect x="2" y="8.5" width="20" height="12" rx="1" ry="1" opacity=".2"/>
 <rect x="4" y="7" width="16" height="8" rx="1" ry="1" fill="#DBE3C7"/>
 <rect x="2" y="9" width="20" height="12" rx="1" ry="1" fill="#89b482"/>
 <path d="m3 3c-0.554 0-1 0.446-1 1v0.5c0-0.554 0.446-1 1-1h5.5c1.5 0 2 2 3.5 2h9c0.554 0 1 0.446 1 1v-0.5c0-0.554-0.446-1-1-1h-9c-1.5 0-2-2-3.5-2z" fill="#DBE3C7" opacity=".1"/>
 <path d="m10.5 12s-0.5 0.5-0.5 1.5c0 1.2094 0.85892 2.2175 2 2.4492v2.0508h-1v1h3v-1h-1v-2.0508c1.1411-0.23167 2-1.2398 2-2.4492 0-1-0.5-1.5-0.5-1.5h-4z" fill="#414A42"/>
</svg>

<svg xmlns="http://www.w3.org/2000/svg" width="24" height="24" version="1">
 <rect style="opacity:0.2" width="20" height="12" x="2" y="9.5" rx="1" ry="1"/>
 <path style="fill:#4c7a5d" d="M 2,17 C 2,17.554 2.446,18 3,18 H 21 C 21.554,18 22,17.554 22,17 V 6 C 22,5.446 21.554,5 21,5 H 12 C 10.5,5 10,3 8.5,3 H 3 C 2.446,3 2,3.446 2,4"/>
 <rect style="opacity:0.2" width="20" height="12" x="2" y="8.5" rx="1" ry="1"/>
 <rect style="fill:#DBE3C7" width="16" height="8" x="4" y="7" rx="1" ry="1"/>
 <rect style="fill:#89b482" width="20" height="12" x="2" y="9" rx="1" ry="1"/>
 <path style="opacity:0.1;fill:#DBE3C7" d="M 3,3 C 2.446,3 2,3.446 2,4 V 4.5 C 2,3.946 2.446,3.5 3,3.5 H 8.5 C 10,3.5 10.5,5.5 12,5.5 H 21 C 21.554,5.5 22,5.946 22,6.5 V 6 C 22,5.446 21.554,5 21,5 H 12 C 10.5,5 10,3 8.5,3 Z"/>
 <path style="fill:#414A42" d="M 10.5 12 C 10.5 12 10 12.5 10 13.5 C 10 14.709447 10.858924 15.717549 12 15.949219 L 12 18 L 11 18 L 11 19 L 14 19 L 14 18 L 13 18 L 13 15.949219 C 14.141076 15.717549 15 14.709447 15 13.5 C 15 12.5 14.5 12 14.5 12 L 10.5 12 z"/>
</svg>
